!!!!SEGMENT: pl-cz--i-171--001_zebrowski-marcin-jozef--adagio-pro-processione-in-f.krn
!!!cenid: 17xx:2323
!!!COM: Żebrowski, Marcin Józef
!!!COM-rismID: pe30020322
!!!CDT: 1702-1770/06/29
!!!CNT: Polish
!!!OTL: Adagio pro processione in F
!!!PDT:
!!!AGN:
!!!YEC: Copyright 2022 Narodowy Instytut Fryderyka Chopina (https://polishscores.org)
!!!YEM: License CC-BY-4.0 (https://creativecommons.org/licenses/by/4.0)
!!!SMS-siglum: PL-CZ
!!!SMS-shelfmark: I-171
!!!SMS-shelfwork: 001 W
!!!SMS-variant:
!!!SMS-altvar:
!!!NIFC-rismSourceID: 300033507
!!!NIFC-rismChildID: 300033508
!!!NIFC-islandoraID: pl-cz:1008
!!!URL-pdf-islandora: https://repozytorium.nifc.pl/islandora/object/pl-cz%3A1008/datastream/PDF/view
!!!URL-scan: https://polish.musicsources.pl/pl/lokalizacje/galeria/rekopisy/575 @EN{Scan on Polish Music Sources Website} @PL{Skany w portalu Dziedzictwo Muzyki Polskiej w otwartym dostępie}
!!!IIIF:
!!!ONB-nifc: UWAGA: w zbiorze 2 Adagio: 1. in F, 2. in D.
!!!AIN: 1 cello 2 clrno 2 cor 2 oboe 1 organ 2 violn
!!!key: F
**kern	**fba	**dynam	**kern	**dynam	**kern	**dynam	**kern	**dynam	**kern	**kern	**kern	**kern	**kern	**kern
*group4	*	*	*group3	*	*group3	*	*group3	*	*group2	*group2	*group2	*group2	*group1	*group1
*part10	*	*	*part9	*	*part8	*	*part7	*	*part6	*part5	*part4	*part3	*part2	*part1
*staff10	*	*	*staff9	*	*staff8	*	*staff7	*	*staff6	*staff5	*staff4	*staff3	*staff2	*staff1
*I"Organo.	*	*	*I"Baſso.	*	*I"Violino Secondo.	*	*I"Violino Primo.	*	*I"[Clarino Secondo ex d]	*I"[Clarino Primo ex d]	*I"Cornu Secondo ex F.	*I"Cornu Primo [ex F]	*I"Hoboe 2do.	*I"Hoboe 1mo.
*I'org	*	*	*I'vlc	*	*I'vl 2	*	*I'vl 1	*	*I'[clno 2 in D]	*I'[clno 1 in D]	*I'cor 2 in F	*I'cor 1 [in F]	*I'ob 2	*I'ob 1
*Iorgan	*	*	*Icello	*	*Ivioln	*	*Ivioln	*	*Iclrno	*Iclrno	*Icor	*Icor	*Ioboe	*Ioboe
*ICklav	*	*	*ICstr	*	*ICstr	*	*ICstr	*	*ICbras	*ICbras	*ICbras	*ICbras	*ICww	*ICww
*clefF4	*	*	*clefF4	*	*clefG2	*	*clefG2	*	*clefG2	*clefG2	*clefG2	*clefG2	*clefG2	*clefG2
*	*	*	*	*	*	*	*	*	*ITrd-1c-2	*ITrd-1c-2	*ITrd4c7	*ITrd4c7	*	*
*k[b-]	*	*	*k[b-]	*	*k[b-]	*	*k[b-]	*	*k[f#c#]	*k[f#c#]	*k[b-]	*k[b-]	*k[b-]	*k[b-]
*F:	*	*	*F:	*	*F:	*	*F:	*	*F:	*F:	*F:	*F:	*F:	*F:
*M3/4	*	*	*M3/4	*	*M3/4	*	*M3/4	*	*M3/4	*M3/4	*M3/4	*M3/4	*M3/4	*M3/4
=1	=1	=1	=1	=1	=1	=1	=1	=1	=1	=1	=1	=1	=1	=1
*2\right	*	*	*2\right	*	*2\right	*	*2\right	*	*2\right	*2\right	*2\right	*2\right	*2\right	*2\right
!LO:TX:a:B:t=Adagio	!	!	!LO:TX:a:B:t=Adagio.	!	!LO:TX:a:B:t=Adagio.	!	!LO:TX:t=1	!	!	!	!LO:TX:a:B:t=Adagio.	!LO:TX:a:B:t=Adagio.	!LO:TX:a:B:t=Adagio.	!LO:TX:a:B:t=Adagio.
!LO:TX:a:t=1.	!	!	!LO:TX:a:t=1.	!	!LO:TX:a:t=1.	!	!LO:TX:b:B:t=Adagio.	!	!LO:TX:a:t=P:problem=brak partii w źródle	!LO:TX:a:t=P:problem=brak partii w źródle	!LO:TX:a:t=1.	!LO:TX:a:t=1.	!LO:TX:a:t=1mo	!LO:TX:a:t=1.
2F\	.	.	2F\	.	8.f/L	.	8.ff\L	.	2.ryy	2.ryy	2a\	2cc\	2ff\	2aa\
.	.	.	.	.	16f/Jk	.	16ff\Jk	.	.	.	.	.	.	.
.	.	.	.	.	8.a\L	.	8.cc\L	.	.	.	.	.	.	.
.	.	.	.	.	16a\Jk	.	16cc\Jk	.	.	.	.	.	.	.
4r	.	.	4r	.	8.cc\L	.	8.a/L	.	.	.	4r	4r	4r	4r
.	.	.	.	.	16cc\Jk	.	16a/Jk	.	.	.	.	.	.	.
=2	=2	=2	=2	=2	=2	=2	=2	=2	=2	=2	=2	=2	=2	=2
!	!	!	!	!	!	!	!	!	!	!	!LO:TX:a:t=1.	!LO:TX:a:t=1.	!	!
8.FF/L	.	.	8.FF/L	.	2ff\	.	2f/	.	2.ryy	2.ryy	2.r	2.r	8r	8r
.	.	.	.	.	.	.	.	.	.	.	.	.	4aa\	4ccc\
16FF/Jk	.	.	16FF/Jk	.	.	.	.	.	.	.	.	.	.	.
8.AA/L	x 6	.	8.AA/L	.	.	.	.	.	.	.	.	.	.	.
.	.	.	.	.	.	.	.	.	.	.	.	.	16gg\LL	16bb-\LL
16AA/Jk	.	.	16AA/Jk	.	.	.	.	.	.	.	.	.	16ff\JJ	16aa\JJ
8.C/L	x 7	.	8.C/L	.	4r	.	4r	.	.	.	.	.	8gg\L	8bb-\L
.	.	.	.	.	.	.	.	.	.	.	.	.	8ee\J	8gg\J
16C/Jk	.	.	16C/Jk	.	.	.	.	.	.	.	.	.	.	.
=3	=3	=3	=3	=3	=3	=3	=3	=3	=3	=3	=3	=3	=3	=3
.	.	.	.	.	.	.	.	.	.	.	.	.	8qqee/	8qqgg/
2F\	.	.	2F\	.	8.f/L	.	8.ff\L	.	2.ryy	2.ryy	2a\	2cc\	2ff\	2aa\
.	.	.	.	.	16f/Jk	.	16ff\Jk	.	.	.	.	.	.	.
.	.	.	.	.	8.a\L	.	8.cc\L	.	.	.	.	.	.	.
.	.	.	.	.	16a\Jk	.	16cc\Jk	.	.	.	.	.	.	.
4r	.	.	4r	.	8.cc\L	.	8.a/L	.	.	.	4r	4r	4r	4r
.	.	.	.	.	16cc\Jk	.	16a/Jk	.	.	.	.	.	.	.
=4	=4	=4	=4	=4	=4	=4	=4	=4	=4	=4	=4	=4	=4	=4
!	!	!	!	!	!	!	!	!	!	!	!	!	!LO:TX:a:t=2.	!LO:TX:a:t=2.
!	!	!	!	!	!	!	!	!	!	!	!	!	!LO:N:vis=0	!LO:N:vis=0
8.FF/L	.	.	8.FF/L	.	2ff\	.	2f/	.	2.ryy	2.ryy	8r	8r	1.r	1.r
.	.	.	.	.	.	.	.	.	.	.	4a\	4cc\	.	.
16FF/Jk	.	.	16FF/Jk	.	.	.	.	.	.	.	.	.	.	.
8.AA/L	x 6	.	8.AA/L	.	.	.	.	.	.	.	.	.	.	.
.	.	.	.	.	.	.	.	.	.	.	16g\LL	16b-\LL	.	.
16AA/Jk	.	.	16AA/Jk	.	.	.	.	.	.	.	16f\JJ	16a\JJ	.	.
8.C/L	x 7	.	8.C/L	.	4r	.	4r	.	.	.	8g\L	8b-\L	.	.
.	.	.	.	.	.	.	.	.	.	.	8c\J	8e\J	.	.
16C/Jk	.	.	16C/Jk	.	.	.	.	.	.	.	.	.	.	.
=5	=5	=5	=5	=5	=5	=5	=5	=5	=5	=5	=5	=5	=5	=5
.	.	.	.	.	.	.	.	.	.	.	8qqc/	8qqg/	.	.
4.F\	x 3	.	4.F\	.	(8.ff\L	.	(8.aa\L	.	2.ryy	2.ryy	2f\	2a\	.	.
.	4 2	.	.	.	32gg\LL	.	32bb-\LL	.	.	.	.	.	.	.
.	.	.	.	.	32aa\JJJ)	.	32ccc\JJJ)	.	.	.	.	.	.	.
.	.	.	.	.	8qqaa\	.	8qqccc/	.	.	.	.	.	.	.
.	.	.	.	.	4.gg\	.	4.bb-\	.	.	.	.	.	.	.
16E\LL	.	.	16E\LL	.	.	.	.	.	.	.	.	.	.	.
16D\JJ	.	.	16D\JJ	.	.	.	.	.	.	.	.	.	.	.
8E\L	6 5	.	8E\L	.	.	.	.	.	.	.	4r	4r	.	.
8C\J	.	.	8C\J	.	8ee\	.	8gg\	.	.	.	.	.	.	.
=6	=6	=6	=6	=6	=6	=6	=6	=6	=6	=6	=6	=6	=6	=6
.	.	.	.	.	8qqee/	.	8qqgg/	.	.	.	.	.	.	.
8F\	.	.	8F\	.	2ff\	.	2aa\	.	2.ryy	2.ryy	(8.f\L	(8.a\L	4r	4r
4F\	4 32	.	4F\	.	.	.	.	.	.	.	.	.	.	.
.	.	.	.	.	.	.	.	.	.	.	32g\LL	32b-\LL	.	.
.	.	.	.	.	.	.	.	.	.	.	32a\JJJ)	32cc\JJJ)	.	.
.	.	.	.	.	.	.	.	.	.	.	8qqa/	8qqcc/	.	.
!	!	!	!	!	!	!	!	!	!	!	!	!LO:TX:t=P:problem=t. 6-11 – niekompletne źródło	!	!
.	.	.	.	.	.	.	.	.	.	.	4.g\	4.ryy	4r	4r
16E\LL	.	.	16E\LL	.	.	.	.	.	.	.	.	.	.	.
16D\JJ	.	.	16D\JJ	.	.	.	.	.	.	.	.	.	.	.
8E\L	6 5	.	8E\L	.	4r	.	4r	.	.	.	.	.	16ee|\LL	16gg|\LL
.	.	.	.	.	.	.	.	.	.	.	.	.	(16ee\	(16gg\
8C\J	.	.	8C\J	.	.	.	.	.	.	.	8c/	8ryy	16ff\	16aa\
.	.	.	.	.	.	.	.	.	.	.	.	.	16gg\JJ)	16bb-\JJ)
=7	=7	=7	=7	=7	=7	=7	=7	=7	=7	=7	=7	=7	=7	=7
4F\	.	.	4F\	.	16ff|\LL	.	16aa|\LL	.	2.ryy	2.ryy	4f\	2.ryy	16ff|\LL	16aa|\LL
.	.	.	.	.	(16ff\	.	(16aa\	.	.	.	.	.	(16ff\	(16aa\
.	.	.	.	.	16gg\	.	16bb-\	.	.	.	.	.	16gg\	16bb-\
.	.	.	.	.	16aa\JJ)	.	16ccc\JJ)	.	.	.	.	.	16aa\JJ)	16ccc\JJ)
.	.	.	.	.	8qqaa\	.	8qqccc\	.	.	.	.	.	8qqaa/	8qqccc/
4BB-/	8 6	.	4BB-/	.	4.gg\	.	4.bb-\	.	.	.	4g\	.	4.gg\	4.bb-\
8r	.	.	8r	.	.	.	.	.	.	.	4f\	.	.	.
8BBn/	7 5	.	8BBn/	.	8ff\	.	8aa\	.	.	.	.	.	8ff\	8aa\
=8	=8	=8	=8	=8	=8	=8	=8	=8	=8	=8	=8	=8	=8	=8
.	.	.	.	.	8qqgg/	.	8qqbb-/	.	.	.	8qqg/	.	8qqgg/	.
8.C\L	6 4	.	8.C\L	.	4ff\	.	4aa\	.	2.ryy	2.ryy	4f\	2.ryy	4ff\	4aa\
16C\Jk	.	.	16C\Jk	.	.	.	.	.	.	.	.	.	.	.
8.E\L	x 6	.	8.E\L	.	4ee\	.	4gg\	.	.	.	4c/	.	4ee\	4gg\
16E\Jk	.	.	16E\Jk	.	.	.	.	.	.	.	.	.	.	.
8.G\L	x n	.	8.G\L	.	4r	.	4r	.	.	.	4r	.	4r	4r
16G\Jk	.	.	16G\Jk	.	.	.	.	.	.	.	.	.	.	.
=9	=9	=9	=9	=9	=9	=9	=9	=9	=9	=9	=9	=9	=9	=9
!	!	!	!	!	!LO:TX:a:t=1.	!	!	!	!	!	!	!	!	!
8c\L	.	.	8c\L	.	2.r	.	16gg\LL	.	2.ryy	2.ryy	8r	2.ryy	2g/	[2.cc\
.	.	.	.	.	.	.	16ee\J	.	.	.	.	.	.	.
8E\	.	.	8E\	.	.	.	8.cc\J	.	.	.	8c/L	.	.	.
8E\	x 6	.	8E\	.	.	.	.	.	.	.	8c/	.	.	.
.	.	.	.	.	.	.	16dd\LL	.	.	.	.	.	.	.
8E\	.	.	8E\	.	.	.	16ee\	.	.	.	8c/	.	.	.
.	.	.	.	.	.	.	16ff\JJ	.	.	.	.	.	.	.
*	*	*	*	*	*	*	*custos:gg	*	*	*	*	*	*	*
!	!	!	!	!	!	!	!LO:LB:g=original	!	!	!	!	!	!	!
8E\	x 5	.	8E\	.	.	.	(16gg\LL	.	.	.	8c/	.	4cc\	.
.	.	.	.	.	.	.	16aa\	.	.	.	.	.	.	.
8E\J	.	.	8E\J	.	.	.	16bb-\)	.	.	.	8c/J	.	.	.
.	.	.	.	.	.	.	16gg\JJ	.	.	.	.	.	.	.
!LO:LB:g=original	!	!	!	!	!	!	!	!	!	!	!	!	!	!
=10	=10	=10	=10	=10	=10	=10	=10	=10	=10	=10	=10	=10	=10	=10
8F\L	.	.	8F\L	.	16cc\LL	.	8aa\	.	2.ryy	2.ryy	8f\L	2.ryy	2.a/	2.cc\]
.	.	.	.	.	16a\J	.	.	.	.	.	.	.	.	.
8F\	.	.	8F\	.	8.f\J	.	4cc\	.	.	.	16a\L	.	.	.
.	.	.	.	.	.	.	.	.	.	.	16g\JJ	.	.	.
8F\	.	.	8F\	.	.	.	.	.	.	.	8f\L	.	.	.
.	.	.	.	.	16g/LL	.	.	.	.	.	.	.	.	.
8F\	x 7-r	.	8F\	.	16a/	.	4ff\	.	.	.	8f\	.	.	.
.	.	.	.	.	16b-/JJ	.	.	.	.	.	.	.	.	.
8F\	.	.	8F\	.	(16cc\LL	.	.	.	.	.	8f\	.	.	.
.	.	.	.	.	16dd\	.	.	.	.	.	.	.	.	.
8F\J	.	.	8F\J	.	16ee-X\)	.	[8aa\	.	.	.	8f\J	.	.	.
.	.	.	.	.	16cc|\JJ	.	.	.	.	.	.	.	.	.
!	!	!	!LO:LB:g=original	!	!	!	!	!	!	!	!	!	!	!
=11	=11	=11	=11	=11	=11	=11	=11	=11	=11	=11	=11	=11	=11	=11
8F#X\L	x 6	.	8F#X\L	.	8dd\	.	16aa\LL]	.	2.ryy	2.ryy	4A/	2.ryy	2a/	[2.dd\
.	.	.	.	.	.	.	16ff#X\J	.	.	.	.	.	.	.
.	.	.	.	.	.	.	8qqee/	.	.	.	.	.	.	.
8F#\	.	.	8F#\	.	4f#X/	.	8.dd\J	.	.	.	.	.	.	.
8F#\	.	.	8F#\	.	.	.	.	.	.	.	4r	.	.	.
.	.	.	.	.	.	.	16ee\LL	.	.	.	.	.	.	.
8F#\	.	.	8F#\	.	4a/	.	16ff#X\	.	.	.	.	.	.	.
.	.	.	.	.	.	.	16gg\JJ	.	.	.	.	.	.	.
8F#\	x 5	.	8F#\	.	.	.	(16aa\LL	.	.	.	4r	.	4dd\	.
.	.	.	.	.	.	.	16bbn\	.	.	.	.	.	.	.
8F#\J	.	.	8F#\J	.	[8dd\	.	16ccc\)	.	.	.	.	.	.	.
.	.	.	.	.	.	.	16aa\JJ	.	.	.	.	.	.	.
!	!	!	!	!	!LO:LB:g=original	!	!	!	!	!	!LO:LB:g=original	!LO:LB:g=original	!	!
=12	=12	=12	=12	=12	=12	=12	=12	=12	=12	=12	=12	=12	=12	=12
!LO:TX:a:t=P:problem=mixed beam	!	!	!LO:TX:a:t=P:problem=mixed beam	!	!	!	!	!	!	!	!	!	!	!
8G\L	x n	.	8G\L	.	16dd\LL]	.	8bbn\	.	2.ryy	2.ryy	2.g\	2.b	2bn\	2dd\]
.	.	.	.	.	16bn\J	.	.	.	.	.	.	.	.	.
8GG/	.	.	8GG/	.	8.g\J	.	4dd\	.	.	.	.	.	.	.
8GG/	.	.	8GG/	.	.	.	.	.	.	.	.	.	.	.
.	.	.	.	.	16a\LL	.	.	.	.	.	.	.	.	.
8GG/	.	.	8GG/	.	16bn\	.	4gg\	.	.	.	.	.	.	.
.	.	.	.	.	16cc\JJ	.	.	.	.	.	.	.	.	.
8GG/	x 7	.	8GG/	.	(16dd\LL	.	.	.	.	.	.	.	4r	4r
.	.	.	.	.	16ee\	.	.	.	.	.	.	.	.	.
8GG/J	.	.	8GG/J	.	16ff\)	.	8bbn\	.	.	.	.	.	.	.
.	.	.	.	.	16dd\JJ	.	.	.	.	.	.	.	.	.
!	!	!	!	!	!	!	!	!	!	!	!	!	!LO:LB:g=original	!
=13	=13	=13	=13	=13	=13	=13	=13	=13	=13	=13	=13	=13	=13	=13
4C/	.	.	4C/	.	4ee 4cc 4e 4G/	.	4ccc 4ee 4g 4c/	.	2.ryy	2.ryy	2g\	2cc\	4r	8r
!	!	!	!	!	!	!	!	!	!	!	!	!	!	!LO:TX:b:t=Solo.
.	.	.	.	.	.	.	.	.	.	.	.	.	.	8ccc\
!	!	!	!	!	!	!	!	!	!	!	!	!	!LO:TX:b:t=Solo	!LO:LB:g=original
4r	.	.	4r	.	4r	.	4r	.	.	.	.	.	8r	8bbn\L
.	.	.	.	.	.	.	.	.	.	.	.	.	8cc\	8aa\
4r	.	.	4r	.	4r	.	4r	.	.	.	4r	4r	8bn/L	8gg\
.	.	.	.	.	.	.	.	.	.	.	.	.	8a/J	8ff\J
=14	=14	=14	=14	=14	=14	=14	=14	=14	=14	=14	=14	=14	=14	=14
4C/	.	.	4C/	.	4ee 4cc 4e 4G/	.	4ccc 4ee 4g 4c/	.	2.ryy	2.ryy	4g\	4cc\	8g/L	8ee\L
!	!	!	!	!	!	!	!	!	!	!	!	!	!	!LO:TUP:a:problem=klamra łukowa
.	.	.	.	.	.	.	.	.	.	.	.	.	8f/	24ff\L
.	.	.	.	.	.	.	.	.	.	.	.	.	.	24gg\
.	.	.	.	.	.	.	.	.	.	.	.	.	.	24aa\JJ
4r	.	.	4r	.	4r	.	4r	.	.	.	4r	4r	8e/	8gg\L
.	.	.	.	.	.	.	.	.	.	.	.	.	8a/	8ff\
4r	.	.	4r	.	4r	.	4r	.	.	.	4r	4r	8g/	8ee\
.	.	.	.	.	.	.	.	.	.	.	.	.	8f/J	8dd\J
=15	=15	=15	=15	=15	=15	=15	=15	=15	=15	=15	=15	=15	=15	=15
!LO:TX:a:t=1.	!	!	!LO:TX:a:t=1.	!	!	!LO:DY:b:Bi:t=pia	!	!LO:DY:b:Bi:t=p&colon;	!	!	!	!	!	!
2.r	.	.	2.r	.	4e|/	p	4e|/	p	2.ryy	2.ryy	4c/	4cc\	4e|/	8.cc\L
.	.	.	.	.	.	.	.	.	.	.	.	.	.	16dd\Jk
!	!	!	!	!	!	!	!	!	!	!	!	!	!	!LO:TX:a:t=t.
.	.	.	.	.	.	.	.	.	.	.	.	.	.	8qqee/
.	.	.	.	.	4f|/	.	4f|/	.	.	.	4f\	4cc\	4f|/	2dd\
!	!	!	!	!	!	!	!	!	!	!	!	!LO:TX:a:t=t.	!	!
.	.	.	.	.	4g|/	.	4g|/	.	.	.	4g\	4b\	4g|/	.
=16	=16	=16	=16	=16	=16	=16	=16	=16	=16	=16	=16	=16	=16	=16
8r	.	.	8r	.	2c/	.	2c/	.	2.ryy	2.ryy	2c/	2cc\	2c/	2cc\
8d|\L	.	.	8d|\L	.	.	.	.	.	.	.	.	.	.	.
8c|\	.	.	8c|\	.	.	.	.	.	.	.	.	.	.	.
8B-|\	.	.	8B-|\	.	.	.	.	.	.	.	.	.	.	.
8A|\	.	.	8A|\	.	4r	.	4r	.	.	.	4r	4r	4r	4r
8G|\J	.	.	8G|\J	.	.	.	.	.	.	.	.	.	.	.
!	!	!	!	!	!	!	!LO:LB:g=original	!	!	!	!	!	!	!
=17:|!|:	=17:|!|:	=17:|!|:	=17:|!|:	=17:|!|:	=17:|!|:	=17:|!|:	=17:|!|:	=17:|!|:	=17:|!|:	=17:|!|:	=17:|!|:	=17:|!|:	=17:|!|:	=17:|!|:
!	!	!	!	!	!	!LO:DY:b:rj:Bi:t=f.	!	!	!	!	!	!	!	!
8F#X\L	7-r 5	.	8F#X\L	.	(16a\LL	f	(16cc\LL	.	2.ryy	2.ryy	2a\	2cc\	4.cc\	4.aa\
.	.	.	.	.	16b-\JJ	.	16dd\JJ	.	.	.	.	.	.	.
!	!	!	!	!	!	!	!	!LO:DY:b:Bi:t=for	!	!	!	!	!	!
8F#\	.	.	8F#\	.	4cc\)	.	4ee-X\)	f	.	.	.	.	.	.
8F#\	.	.	8F#\	.	.	.	.	.	.	.	.	.	.	.
8F#\	.	.	8F#\	.	16b-\LL	.	16dd\LL	.	.	.	.	.	8cc\	8aa\
.	.	.	.	.	16a\JJ	.	16cc\JJ	.	.	.	.	.	.	.
8D\	6 4	.	8D\	.	8g/L	.	8b-/L	.	.	.	8g\L	8b-\L	8b-/L	8gg\L
8D\J	5 #	.	8D\J	.	8f#X/J	.	8a/J	.	.	.	8a\J	8a\J	8a/J	8ff#X\J
=18	=18	=18	=18	=18	=18	=18	=18	=18	=18	=18	=18	=18	=18	=18
!	!	!	!	!	!	!	!	!	!	!	!	!	!	!LO:SIC:v:s=8qqff#/
.	.	.	.	.	.	.	8qqcc/	.	.	.	.	.	8qqa/	8qqff/
8G|\L	.	.	8G\L	.	8g/L	.	8b-/L	.	2.ryy	2.ryy	2g\	2b-\	2b-/	2gg\
8A|\	.	.	8A\	.	8f#X/J	.	8a/J	.	.	.	.	.	.	.
.	.	.	.	.	8qqf#/	.	8qqa/	.	.	.	.	.	.	.
8G|\	.	.	8G\	.	2g/	.	2b-/	.	.	.	.	.	.	.
8Fn|\	.	.	8Fn\	.	.	.	.	.	.	.	.	.	.	.
8E|\	.	.	8E\	.	.	.	.	.	.	.	4r	4r	4r	4r
8D|\J	.	.	8D\J	.	.	.	.	.	.	.	.	.	.	.
=19	=19	=19	=19	=19	=19	=19	=19	=19	=19	=19	=19	=19	=19	=19
!	!	!	!	!	!	!	!	!	!	!	!	!LO:TX:t=P:problem=t. 19-26 – niekompletne źródło	!	!
8C#X/L	7 5	.	8C#X/L	.	8r	.	8r	.	2.ryy	2.ryy	8A/L	2.ryy	(16ee\LL	(16gg\LL
.	.	.	.	.	.	.	.	.	.	.	.	.	16ff\JJ	16aa\JJ
!	!	!LO:DY:b:Bi:t=pia&colon;	!	!LO:DY:b:Bi:t=pia	!	!LO:DY:b:Bi:t=pia	!	!LO:DY:b:Bi:t=p&colon;	!	!	!	!	!	!
8C#/	.	p	8C#/	p	4e/	p	4g/	p	.	.	8A/	.	4gg\)	4bb-\)
8C#/	.	.	8C#/	.	.	.	.	.	.	.	8A/	.	.	.
8C#/	.	.	8C#/	.	8e/	.	8g/	.	.	.	8A/	.	16ff\LL	16aa\LL
.	.	.	.	.	.	.	.	.	.	.	.	.	16ee\JJ	16gg\JJ
8AA/	6 4	.	8AA/	.	8d/L	.	8f/L	.	.	.	8A/	.	8dd\L	8ffn\L
8AA/J	5 #	.	8AA/J	.	8c#X/J	.	8e/J	.	.	.	8A/J	.	8cc#X\J	8ee\J
!LO:LB:g=original	!	!	!	!	!	!	!	!	!	!	!	!	!	!
=20	=20	=20	=20	=20	=20	=20	=20	=20	=20	=20	=20	=20	=20	=20
!	!	!	!	!	!LO:SIC:v:s=8qqc#/	!	!	!	!	!	!	!	!	!
.	.	.	.	.	8qqc/	.	8qqe/	.	.	.	.	.	.	.
8D|/L	.	.	8D|/L	.	2d/	.	2f/	.	2.ryy	2.ryy	2A/	2.ryy	8dd\L	8ff\L
8E|/	.	.	8E|/	.	.	.	.	.	.	.	.	.	8cc#X\J	8ee\J
.	.	.	.	.	.	.	.	.	.	.	.	.	8qqcc#/	8qqee/
8D|/	.	.	8D|/	.	.	.	.	.	.	.	.	.	2dd\	2ff\
8Cn|/	.	.	8Cn|/	.	.	.	.	.	.	.	.	.	.	.
8BB-|/	.	.	8BB-|/	.	4r	.	4r	.	.	.	4r	.	.	.
8AA|/J	.	.	8AA|/J	.	.	.	.	.	.	.	.	.	.	.
!	!	!	!LO:LB:g=original	!	!	!	!	!	!	!	!	!	!	!
=21	=21	=21	=21	=21	=21	=21	=21	=21	=21	=21	=21	=21	=21	=21
.	.	.	.	.	.	.	.	.	.	.	.	.	.	16qqdd/LL
!	!	!	!	!	!	!	!	!	!	!	!LO:TX:a:t=1.	!	!LO:TX:a:t=t.	!LO:TX:a:t=t.
.	.	.	.	.	.	.	.	.	.	.	.	.	.	16qqee/JJ
!	!	!	!	!	!	!LO:DY:b:Bi:t=for.	!	!LO:DY:b:Bi:t=for	!	!	!	!	!	!
8GG#X/L	7 5	.	8GG#X/L	.	8bn\	f	8dd\	f	2.ryy	2.ryy	2.r	2.ryy	2.dd\	2.ff\
!	!	!LO:DY:b:Bi:t=for&colon;	!	!LO:DY:b:Bi:t=for	!	!	!	!	!	!	!	!	!	!
8GG#/	.	f	8GG#/	f	4dd\	.	4bbn\	.	.	.	.	.	.	.
8GG#/	.	.	8GG#/	.	.	.	.	.	.	.	.	.	.	.
8GG#/	.	.	8GG#/	.	4bn\	.	4ff\	.	.	.	.	.	.	.
8GG#/	.	.	8GG#/	.	.	.	.	.	.	.	.	.	.	.
8GG#/J	.	.	8GG#/J	.	8b\	.	16ee\LL	.	.	.	.	.	.	.
.	.	.	.	.	.	.	16dd\JJ	.	.	.	.	.	.	.
!	!	!	!	!	!LO:LB:g=original	!	!	!	!	!	!	!	!	!LO:LB:g=original
=22	=22	=22	=22	=22	=22	=22	=22	=22	=22	=22	=22	=22	=22	=22
.	.	.	.	.	.	.	8qqdd/	.	.	.	.	.	.	.
4AA/	x #	.	4AA/	.	4e/	.	4cc#X\	.	2.ryy	2.ryy	4A/	2.ryy	4cc#X\	8ee\L
.	.	.	.	.	.	.	.	.	.	.	.	.	.	8a\
4r	.	.	4r	.	4r	.	4r	.	.	.	4r	.	4r	8b-\
.	.	.	.	.	.	.	.	.	.	.	.	.	.	8bn\
4r	.	.	4r	.	4r	.	4r	.	.	.	4r	.	8r	8cc\
.	.	.	.	.	.	.	.	.	.	.	.	.	8a/	8cc#X\J
!	!	!	!	!	!	!	!	!	!	!	!	!	!LO:LB:g=original	!
=23	=23	=23	=23	=23	=23	=23	=23	=23	=23	=23	=23	=23	=23	=23
!LO:TX:a:t=1.	!	!	!LO:TX:a:t=1.	!	!LO:TX:a:t=1.	!	!LO:TX:a:t=1.	!	!	!	!LO:TX:a:t=1.	!	!	!
2.r	.	.	2.r	.	2.r	.	2.r	.	2.ryy	2.ryy	2.r	2.ryy	8dd\L	8dd\L
.	.	.	.	.	.	.	.	.	.	.	.	.	8ccn\J	8ee\
!	!	!	!	!	!	!	!	!	!	!	!	!	!LO:TX:a:t=t.	!
.	.	.	.	.	.	.	.	.	.	.	.	.	8qqcc/	.
.	.	.	.	.	.	.	.	.	.	.	.	.	2b-\	8ff\
.	.	.	.	.	.	.	.	.	.	.	.	.	.	8ff#X\
.	.	.	.	.	.	.	.	.	.	.	.	.	.	8gg\
.	.	.	.	.	.	.	.	.	.	.	.	.	.	8gg#X\J
=24	=24	=24	=24	=24	=24	=24	=24	=24	=24	=24	=24	=24	=24	=24
8r	.	.	8r	.	8r	.	8r	.	2.ryy	2.ryy	8r	2.ryy	8a\L	8aa\L
!LO:TX:a:t=P:problem=mixed beam	!	!	!LO:TX:a:t=P:problem=mixed beam	!	!	!	!	!	!	!	!	!	!	!
8F\L	x 6	.	8F\L	.	8dd\	.	8dd\	.	.	.	8f\	.	8dd\J	8dd\J
!	!	!	!	!	!	!	!	!	!	!	!	!	!	!LO:TX:a:t=t.
.	.	.	.	.	.	.	.	.	.	.	.	.	.	8qqdd/
!	!	!	!	!	!	!	!LO:TX:a:t=t.	!	!	!	!	!	!	!
8G\	6 5	.	8G\	.	4dd\	.	2ee\	.	.	.	4g\	.	4dd\	2ee\
8E\	.	.	8E\	.	.	.	.	.	.	.	.	.	.	.
!	!	!	!	!	!LO:TX:a:t=t.	!	!	!	!	!	!	!	!LO:TX:a:t=t.	!
8A\	x #	.	8A\	.	4cc#X\	.	.	.	.	.	4a\	.	4cc#X\	.
8AA/J	.	.	8AA/J	.	.	.	.	.	.	.	.	.	.	.
!	!	!	!	!	!	!	!LO:LB:g=original	!	!	!	!	!	!	!
=25	=25	=25	=25	=25	=25	=25	=25	=25	=25	=25	=25	=25	=25	=25
8.D\L	.	.	8.D\L	.	2dd\	.	2dd\	.	2.ryy	2.ryy	2A/	2.ryy	8dd\	8dd\
.	.	.	.	.	.	.	.	.	.	.	.	.	4ff\	4aa\
16D\Jk	.	.	16D\Jk	.	.	.	.	.	.	.	.	.	.	.
8.F\L	x 6	.	8.F\L	.	.	.	.	.	.	.	.	.	.	.
.	.	.	.	.	.	.	.	.	.	.	.	.	16ee\LL	16gg\LL
16F\Jk	.	.	16F\Jk	.	.	.	.	.	.	.	.	.	16dd\JJ	16ff\JJ
8.A\L	7 #	.	8.A\L	.	4r	.	4r	.	.	.	4r	.	8ee\L	8gg\L
.	.	.	.	.	.	.	.	.	.	.	.	.	8cc#X\J	8ee\J
16A\Jk	.	.	16A\Jk	.	.	.	.	.	.	.	.	.	.	.
=26	=26	=26	=26	=26	=26	=26	=26	=26	=26	=26	=26	=26	=26	=26
8.d\L	.	.	8.d\L	.	8r	.	8r	.	2.ryy	2.ryy	2A/	2.ryy	4dd\	4ff\
.	.	.	.	.	4f/	.	4a/	.	.	.	.	.	.	.
16D\Jk	.	.	16D\Jk	.	.	.	.	.	.	.	.	.	.	.
8.F\L	x 6	.	8.F\L	.	.	.	.	.	.	.	.	.	4r	4r
.	.	.	.	.	16e/LL	.	16g/LL	.	.	.	.	.	.	.
16F\Jk	.	.	16F\Jk	.	16d/JJ	.	16f/JJ	.	.	.	.	.	.	.
8.A\L	7 #	.	8.A\L	.	8e/L	.	8g/L	.	.	.	4r	.	4ee\	4gg\
.	.	.	.	.	8c#X/J	.	8e/J	.	.	.	.	.	.	.
16A\Jk	.	.	16A\Jk	.	.	.	.	.	.	.	.	.	.	.
!	!	!	!	!	!	!	!	!	!	!	!LO:LB:g=original	!LO:LB:g=original	!	!
=27	=27	=27	=27	=27	=27	=27	=27	=27	=27	=27	=27	=27	=27	=27
8d\L	.	.	8d\L	.	4d/	.	(32f/LL	.	2.ryy	2.ryy	4f\	4a\	4dd\	4ff\
.	.	.	.	.	.	.	32e/J	.	.	.	.	.	.	.
.	.	.	.	.	.	.	8.d/J)	.	.	.	.	.	.	.
8F\J	.	.	8F\J	.	.	.	.	.	.	.	.	.	.	.
!	!	!	!	!	!	!	!LO:TX:a:t=t.	!	!	!	!	!	!	!LO:TX:a:t=t.
.	.	.	.	.	.	.	8qqd/	.	.	.	.	.	.	.
8G\L	6 5	.	8G\L	.	4d/	.	2e/	.	.	.	4g\	4b-\	4dd\	2ee\
8E\J	.	.	8E\J	.	.	.	.	.	.	.	.	.	.	.
!LO:TX:a:t=P:problem=mixed beam	!	!	!LO:TX:a:t=P:problem=mixed beam	!	!LO:TX:a:t=t.	!	!	!	!	!	!	!	!LO:TX:a:t=t.	!
8A\L	x #	.	8A\L	.	4c#X/	.	.	.	.	.	4a\	4a\	4cc#X\	.
8AA/J	.	.	8AA/J	.	.	.	.	.	.	.	.	.	.	.
!LO:LB:g=original	!	!	!	!	!	!	!	!	!	!	!	!	!	!
=28	=28	=28	=28	=28	=28	=28	=28	=28	=28	=28	=28	=28	=28	=28
4D/	.	.	4D/	.	4d/	.	8.d/L	.	2.ryy	2.ryy	2A/	2a\	2dd\	2dd\
.	.	.	.	.	.	.	16d/Jk	.	.	.	.	.	.	.
4r	.	.	4r	.	8.d/L	.	8.f#X/L	.	.	.	.	.	.	.
.	.	.	.	.	16d/Jk	.	16f#/Jk	.	.	.	.	.	.	.
4r	.	.	4r	.	8.f#X/L	.	8.a/L	.	.	.	4r	4r	4r	4r
.	.	.	.	.	16f#/Jk	.	16a/Jk	.	.	.	.	.	.	.
=29	=29	=29	=29	=29	=29	=29	=29	=29	=29	=29	=29	=29	=29	=29
!	!	!	!	!	!	!	!	!	!	!	!	!	!LO:TX:a:t=3.	!LO:TX:a:t=3.
!	!	!	!	!	!	!	!	!	!	!	!	!	!LO:N:vis=0	!LO:N:vis=0
8r	.	.	8r	.	8a/	.	8cc\	.	2.ryy	2.ryy	2.a\	2.cc\	1.r	1.r
8F#X\L	7-r 5	.	8F#X\L	.	4cc\	.	4ee-X\	.	.	.	.	.	.	.
8F#\	.	.	8F#\	.	.	.	.	.	.	.	.	.	.	.
8F#\	.	.	8F#\	.	16b-/LL	.	16dd\LL	.	.	.	.	.	.	.
.	.	.	.	.	16a/JJ	.	16cc\JJ	.	.	.	.	.	.	.
8D\	6 4	.	8D\	.	8g/L	.	8b-/L	.	.	.	.	.	.	.
8D\J	5 #	.	8D\J	.	8f#X/J	.	8a/J	.	.	.	.	.	.	.
=30	=30	=30	=30	=30	=30	=30	=30	=30	=30	=30	=30	=30	=30	=30
4G\	.	.	4G\	.	4g/	.	8.b-/L	.	2.ryy	2.ryy	4g\	4b-\	.	.
.	.	.	.	.	.	.	16c/Jk	.	.	.	.	.	.	.
4r	.	.	4r	.	8.c/L	.	8.e/L	.	.	.	4r	4r	.	.
.	.	.	.	.	16c/Jk	.	16e/Jk	.	.	.	.	.	.	.
4r	.	.	4r	.	8.e/L	.	8.g/L	.	.	.	4r	4r	.	.
.	.	.	.	.	16e/Jk	.	16g/Jk	.	.	.	.	.	.	.
!	!	!	!LO:LB:g=original	!	!LO:LB:g=original	!	!	!	!	!	!	!	!	!
=31	=31	=31	=31	=31	=31	=31	=31	=31	=31	=31	=31	=31	=31	=31
8r	.	.	8r	.	8g/	.	8b-\	.	2.ryy	2.ryy	2.g\	2.b-\	2.r	2.r
8E\L	7 5	.	8E\L	.	4b-/	.	4dd\	.	.	.	.	.	.	.
8E\	.	.	8E\	.	.	.	.	.	.	.	.	.	.	.
8E\	.	.	8E\	.	16a/LL	.	16cc\LL	.	.	.	.	.	.	.
.	.	.	.	.	16g/JJ	.	16b-\JJ	.	.	.	.	.	.	.
!	!	!	!	!	!	!	!LO:LB:g=original	!	!	!	!	!	!	!
8C\	6 4	.	8C\	.	8f/L	.	8a/L	.	.	.	.	.	.	.
8C\J	5 3	.	8C\J	.	8e/J	.	8g/J	.	.	.	.	.	.	.
=32	=32	=32	=32	=32	=32	=32	=32	=32	=32	=32	=32	=32	=32	=32
!	!	!	!	!	!	!LO:DY:b:Bi:t=pia	!	!	!	!	!	!	!	!LO:TX:b:t=Solo.
8.F\L	.	.	8.F\L	.	8.f/L	p	8.f/L	.	2.ryy	2.ryy	4f\	4a\	4a/	2ff\
!	!	!	!	!	!	!	!	!LO:DY:b:Bi:t=pia	!	!	!	!	!	!
16F\Jk	.	.	16F\Jk	.	16f/Jk	.	16f/Jk	p	.	.	.	.	.	.
!	!	!LO:DY:b:Bi:t=pia	!	!LO:DY:b:Bi:t=pia	!	!	!	!	!	!	!	!	!	!
8.A\L	x 6	p	8.A\L	p	8.a/L	.	8.a/L	.	.	.	4r	4r	4cc\	.
16A\Jk	.	.	16A\Jk	.	16a/Jk	.	16a/Jk	.	.	.	.	.	.	.
!	!	!	!	!	!	!	!	!	!	!	!	!	!	!LO:TUP:a:problem=klamra łukowa
8.d\L	.	.	8.d\L	.	8.dd\L	.	8.dd\L	.	.	.	4r	4r	[4dd\	12ff\L
.	.	.	.	.	.	.	.	.	.	.	.	.	.	12gg\
.	.	.	.	.	.	.	.	.	.	.	.	.	.	12aa\J
16d\Jk	.	.	16d\Jk	.	16dd\Jk	.	16dd\Jk	.	.	.	.	.	.	.
=33	=33	=33	=33	=33	=33	=33	=33	=33	=33	=33	=33	=33	=33	=33
!	!	!	!	!	!	!	!	!	!	!	!LO:TX:a:t=2.	!LO:TX:a:t=2.	!	!
.	.	.	.	.	.	.	.	.	.	.	.	.	.	8qqaa/
!	!	!	!	!	!	!	!	!	!	!	!LO:N:vis=0	!LO:N:vis=0	!	!
8.E\L	x 7	.	8.E\L	.	8.e/L	.	8.e/L	.	2.ryy	2.ryy	1.r	1.r	4dd\]	2gg\
16E\Jk	.	.	16E\Jk	.	16e/Jk	.	16e/Jk	.	.	.	.	.	.	.
8.G\L	6 4	.	8.G\L	.	8.g/L	.	8.g/L	.	.	.	.	.	[2cc\	.
16G\Jk	.	.	16G\Jk	.	16g/Jk	.	16g/Jk	.	.	.	.	.	.	.
8.c\L	.	.	8.c\L	.	8.cc\L	.	8.cc\L	.	.	.	.	.	.	8ff\L
.	.	.	.	.	.	.	.	.	.	.	.	.	.	8ee\J
16c\Jk	.	.	16c\Jk	.	16cc\Jk	.	16cc\Jk	.	.	.	.	.	.	.
!	!	!	!	!	!	!	!	!	!	!	!	!	!	!LO:LB:g=original
=34	=34	=34	=34	=34	=34	=34	=34	=34	=34	=34	=34	=34	=34	=34
.	.	.	.	.	.	.	.	.	.	.	.	.	.	8qqgg/
8.D\L	x 7	.	8.D\L	.	8.d/L	.	8.d/L	.	2.ryy	2.ryy	.	.	4cc\]	2ff\
16D\Jk	.	.	16D\Jk	.	16d/Jk	.	16d/Jk	.	.	.	.	.	.	.
8.F\L	6 4	.	8.F\L	.	8.f/L	.	8.f/L	.	.	.	.	.	2b-/	.
16F\Jk	.	.	16F\Jk	.	16f/Jk	.	16f/Jk	.	.	.	.	.	.	.
8.B-\L	.	.	8.B-\L	.	8.b-/L	.	8.b-/L	.	.	.	.	.	.	8ee\L
.	.	.	.	.	.	.	.	.	.	.	.	.	.	8dd\J
16B-\Jk	.	.	16B-\Jk	.	16b-/Jk	.	16b-/Jk	.	.	.	.	.	.	.
=35	=35	=35	=35	=35	=35	=35	=35	=35	=35	=35	=35	=35	=35	=35
.	.	.	.	.	.	.	.	.	.	.	.	.	.	8qqdd/
!	!	!LO:DY:b:Bi:t=for&colon;	!	!LO:DY:b:Bi:t=for	!	!	!	!	!	!	!	!	!	!
8.C/L	.	f	8.C/L	f	8c/	.	8c/	.	2.ryy	2.ryy	2c/	2cc\	2g/	2ee\
!	!	!	!	!	!	!LO:DY:b:Bi:t=for	!	!	!	!	!	!	!	!
.	.	.	.	.	4ee\	f	4gg\	.	.	.	.	.	.	.
16C/Jk	.	.	16C/Jk	.	.	.	.	.	.	.	.	.	.	.
8.E\L	x 6	.	8.E\L	.	.	.	.	.	.	.	.	.	.	.
!	!	!	!	!	!	!	!	!LO:DY:b:Bi:t=for	!	!	!	!	!	!
.	.	.	.	.	16dd\LL	.	16ff\LL	f	.	.	.	.	.	.
16E\Jk	.	.	16E\Jk	.	16cc\JJ	.	16ee\JJ	.	.	.	.	.	.	.
8.G\L	7 n	.	8.G\L	.	8dd\L	.	8ff\L	.	.	.	4r	4r	4r	4r
.	.	.	.	.	8bn\J	.	8dd\J	.	.	.	.	.	.	.
16G\Jk	.	.	16G\Jk	.	.	.	.	.	.	.	.	.	.	.
!LO:LB:g=original	!	!	!	!	!	!	!	!	!	!	!	!	!LO:LB:g=original	!
=36	=36	=36	=36	=36	=36	=36	=36	=36	=36	=36	=36	=36	=36	=36
!	!	!	!	!	!LO:TX:a:t=P:problem=mixed beam	!	!LO:TX:a:t=P:problem=mixed beam	!	!	!	!	!LO:TX:t=P:problem=t. 36-40 – niekompletne źródło	!	!
4c\	.	.	4c\	.	8.ee\L	.	8.ee\L	.	2.ryy	2.ryy	4c/	2.ryy	8r	8r
.	.	.	.	.	.	.	.	.	.	.	.	.	4ee\	4gg\
.	.	.	.	.	16c/Jk	.	16c/Jk	.	.	.	.	.	.	.
!	!	!	!	!	!	!LO:DY:b:Bi:t=pia	!	!LO:DY:b:Bi:t=pia	!	!	!	!	!	!
4r	.	.	4r	.	8.e/L	p	8.e/L	p	.	.	4r	.	.	.
.	.	.	.	.	.	.	.	.	.	.	.	.	16dd\LL	16ff\LL
.	.	.	.	.	16e/Jk	.	16e/Jk	.	.	.	.	.	16cc\JJ	16ee\JJ
.	.	.	.	.	.	.	.	.	.	.	.	.	8qqee/	8qqgg/
4r	.	.	4r	.	8.g/L	.	8.g/L	.	.	.	4r	.	8dd\L	8ff\L
.	.	.	.	.	.	.	.	.	.	.	.	.	8qqcc/	8qqee/
.	.	.	.	.	.	.	.	.	.	.	.	.	8bn\J	8dd\J
.	.	.	.	.	16g/Jk	.	16g/Jk	.	.	.	.	.	.	.
=37	=37	=37	=37	=37	=37	=37	=37	=37	=37	=37	=37	=37	=37	=37
!	!	!	!	!	!	!	!	!	!	!	!	!	!LO:SIC:v:s=8qqbn/	!
.	.	.	.	.	.	.	.	.	.	.	.	.	8qqb-/	8qqdd/
8r	.	.	8r	.	2c/	.	2cc\	.	2.ryy	2.ryy	8r	2.ryy	2cc\	2ee\
!	!	!LO:DY:b:Bi:t=pia	!	!LO:DY:b:Bi:t=pia	!	!	!	!	!	!	!	!	!	!
16G\LL	6 -	p	16G\LL	p	.	.	.	.	.	.	8g|\L	.	.	.
16F\JJ	.	.	16F\JJ	.	.	.	.	.	.	.	.	.	.	.
8E\L	6 5	.	8E\L	.	.	.	.	.	.	.	8g|\	.	.	.
8D\	.	.	8D\	.	.	.	.	.	.	.	8g|\J	.	.	.
.	.	.	.	.	.	.	.	.	.	.	8qqa/	.	.	.
8E\	.	.	8E\	.	4r	.	4r	.	.	.	8g\L	.	4r	4r
8C\J	.	.	8C\J	.	.	.	.	.	.	.	16f\L	.	.	.
.	.	.	.	.	.	.	.	.	.	.	16c\JJ	.	.	.
!	!	!	!	!	!LO:LB:g=original	!	!	!	!	!	!	!	!	!
=38	=38	=38	=38	=38	=38	=38	=38	=38	=38	=38	=38	=38	=38	=38
!	!	!	!	!	!	!	!	!	!	!	!	!	!LO:TX:a:t=1.	!LO:TX:a:t=1.
.	.	.	.	.	.	.	.	.	.	.	8qqc/	.	.	.
8.F\L	.	.	8.F\L	.	8r	.	8r	.	2.ryy	2.ryy	2f\	2.ryy	2.r	2.r
!	!	!	!	!	!	!LO:DY:b:Bi:t=for	!	!LO:DY:b:Bi:t=for	!	!	!	!	!	!
.	.	.	.	.	4a/	f	4cc\	f	.	.	.	.	.	.
!	!	!LO:DY:b:Bi:t=for	!	!LO:DY:b:Bi:t=for&colon;	!	!	!	!	!	!	!	!	!	!
16F\Jk	.	f	16F\Jk	f	.	.	.	.	.	.	.	.	.	.
8.A\L	x 6	.	8.A\L	.	.	.	.	.	.	.	.	.	.	.
.	.	.	.	.	16g/LL	.	16b-/LL	.	.	.	.	.	.	.
16A\Jk	.	.	16A\Jk	.	16f/JJ	.	16a/JJ	.	.	.	.	.	.	.
!	!	!	!	!	!	!	!LO:LB:g=original	!	!	!	!	!	!	!
8.c\L	x 7	.	8.c\L	.	8g/L	.	8b-/L	.	.	.	4r	.	.	.
.	.	.	.	.	8e/J	.	8g/J	.	.	.	.	.	.	.
16c\Jk	.	.	16c\Jk	.	.	.	.	.	.	.	.	.	.	.
!	!	!	!LO:LB:g=original	!	!	!	!	!	!	!	!	!	!	!
=39	=39	=39	=39	=39	=39	=39	=39	=39	=39	=39	=39	=39	=39	=39
4F\	.	.	4F\	.	8.f/L	.	8.a/L	.	2.ryy	2.ryy	2F/	2.ryy	8r	8r
.	.	.	.	.	.	.	.	.	.	.	.	.	4aa\	4ccc\
!	!	!	!	!	!	!LO:DY:b:Bi:t=pia	!	!LO:DY:b:Bi:t=pia	!	!	!	!	!	!
.	.	.	.	.	16f/Jk	p	16f/Jk	p	.	.	.	.	.	.
4r	.	.	4r	.	8.a\L	.	8.a/L	.	.	.	.	.	.	.
.	.	.	.	.	.	.	.	.	.	.	.	.	16gg\LL	16bb-\LL
.	.	.	.	.	16a\Jk	.	16a/Jk	.	.	.	.	.	16ff\JJ	16aa\JJ
.	.	.	.	.	.	.	.	.	.	.	.	.	8qqaa/	8qqccc/
!	!	!	!	!	!	!	!	!	!	!	!	!	!	!LO:TX:t=b
4r	.	.	4r	.	8.cc\L	.	8.cc\L	.	.	.	4r	.	8gg\L	8bb-\L
.	.	.	.	.	.	.	.	.	.	.	.	.	8qqff/	8qqaa/
.	.	.	.	.	.	.	.	.	.	.	.	.	8ee\J	8gg\J
.	.	.	.	.	16cc\Jk	.	16cc\Jk	.	.	.	.	.	.	.
=40	=40	=40	=40	=40	=40	=40	=40	=40	=40	=40	=40	=40	=40	=40
.	.	.	.	.	.	.	.	.	.	.	.	.	8qqee/	8qqgg/
8r	.	.	8r	.	2f/	.	2ff\	.	2.ryy	2.ryy	8r	2.ryy	2ff\	2aa\
16c\LL	x 6	.	16c\LL	.	.	.	.	.	.	.	8cc|\L	.	.	.
!	!	!LO:DY:b:Bi:t=pia&colon;	!	!LO:DY:b:Bi:t=pia	!	!	!	!	!	!	!	!	!	!
16B-\JJ	.	p	16B-\JJ	p	.	.	.	.	.	.	.	.	.	.
8A\L	6 5-	.	8A\L	.	.	.	.	.	.	.	8cc|\	.	.	.
8G\	.	.	8G\	.	.	.	.	.	.	.	8cc|\J	.	.	.
8A\	.	.	8A\	.	4r	.	4r	.	.	.	8cc\L	.	4r	4r
8F\J	.	.	8F\J	.	.	.	.	.	.	.	16b-\L	.	.	.
.	.	.	.	.	.	.	.	.	.	.	16a\JJ	.	.	.
!	!	!	!	!	!	!	!	!	!	!	!LO:LB:g=original	!LO:LB:g=original	!	!
=41	=41	=41	=41	=41	=41	=41	=41	=41	=41	=41	=41	=41	=41	=41
!LO:TX:a:t=P:problem=mixed beam	!	!	!LO:TX:a:t=P:problem=mixed beam	!	!	!	!	!LO:DY:b:Bi:t=for	!	!	!	!	!	!LO:TX:a:t=t.
8B-\L	.	.	8B-\L	.	8r	.	16dd\LL	f	2.ryy	2.ryy	8b-\	4dd\	4dd\	[2.ff\
.	.	.	.	.	.	.	16ff\J	.	.	.	.	.	.	.
!	!	!LO:DY:b:Bi:t=for	!	!LO:DY:b:Bi:t=for	!	!LO:DY:b:Bi:t=for	!LO:TX:a:t=t.	!	!	!	!	!	!	!
8BB-/J	.	f	8BB-/J	f	8dd\	f	8ff\J	.	.	.	4f\	.	.	.
!LO:TX:a:t=P:problem=mixed beam	!	!	!LO:TX:a:t=P:problem=mixed beam	!	!	!	!	!	!	!	!	!	!	!
8AA/L	x 6	.	8AA/L	.	8r	.	16cc\LL	.	.	.	.	4cc\	4cc\	.
.	.	.	.	.	.	.	16ff\J	.	.	.	.	.	.	.
!	!	!	!	!	!	!	!LO:TX:a:t=t.	!	!	!	!	!	!	!
8A\J	.	.	8A\J	.	8cc\	.	8ff\J	.	.	.	4f\	.	.	.
!LO:TX:a:t=P:problem=mixed beam	!	!	!LO:TX:a:t=P:problem=mixed beam	!	!	!	!	!	!	!	!	!	!	!
8GG/L	x 7	.	8GG/L	.	8r	.	16b-\LL	.	.	.	.	4b-\	4b-\	.
.	.	.	.	.	.	.	16ff\J	.	.	.	.	.	.	.
!	!	!	!	!	!	!	!LO:TX:a:t=t.	!	!	!	!	!	!	!
8G\J	.	.	8G\J	.	8b-/	.	8ff\J	.	.	.	8f\	.	.	.
=42	=42	=42	=42	=42	=42	=42	=42	=42	=42	=42	=42	=42	=42	=42
4F\	x 8	.	4F\	.	8r	.	8a\L	.	2.ryy	2.ryy	2f\	2a\	8r	8ff\L]
.	.	.	.	.	8a/	.	8cc\J	.	.	.	.	.	8a/	8cc\J
8r	.	.	8r	.	4.cc\	.	2ee-X\	.	.	.	.	.	4.cc\	2ee-X\
8c\L	6 -	.	8c\L	.	.	.	.	.	.	.	.	.	.	.
8A\	.	.	8A\	.	.	.	.	.	.	.	4r	4r	.	.
8F\J	.	.	8F\J	.	8a/	.	.	.	.	.	.	.	8a/	.
!	!	!	!	!	!	!	!	!	!	!	!	!	!	!LO:LB:g=original
=43	=43	=43	=43	=43	=43	=43	=43	=43	=43	=43	=43	=43	=43	=43
!LO:TX:a:t=P:problem=mixed beam	!	!	!	!	!	!	!	!	!	!	!	!	!	!
8B-\L	.	.	8B-\L	.	4f/	.	8dd\L	.	2.ryy	2.ryy	8f\L	4b-\	4f/	8dd\L
8A\	.	.	8A\J	.	.	.	8bb-\J	.	.	.	8g\J	.	.	8bb-\J
!	!	!	!LO:TX:a:t=P:problem=mixed beam	!	!	!	!	!	!	!	!	!	!	!
8c\	6 4	.	8c\L	.	4ff\	.	4aa\	.	.	.	4f\	4a\	4ff\	4aa\
8B-\	.	.	8B-\	.	.	.	.	.	.	.	.	.	.	.
!	!	!	!	!	!LO:TX:a:t=t.	!	!LO:TX:a:t=t.	!	!	!	!	!LO:TX:a:t=t.	!LO:TX:a:t=t.	!LO:TX:a:t=t.
8c\	5 3	.	8c\	.	4ee\	.	4gg\	.	.	.	4c/	4g\	4ee\	4gg\
8C/J	.	.	8C/J	.	.	.	.	.	.	.	.	.	.	.
!LO:LB:g=original	!	!	!	!	!	!	!	!	!	!	!	!	!LO:LB:g=original	!
=44	=44	=44	=44	=44	=44	=44	=44	=44	=44	=44	=44	=44	=44	=44
4F\	.	.	4F\	.	8.ff\L	.	8.ff\L	.	2.ryy	2.ryy	4A/	4f\	4ff\	4ff\
.	.	.	.	.	16ff\Jk	.	16aa\Jk	.	.	.	.	.	.	.
4r	.	.	4r	.	8.cc\L	.	8.ff\L	.	.	.	4r	4r	4r	4r
.	.	.	.	.	16cc\Jk	.	16ff\Jk	.	.	.	.	.	.	.
4r	.	.	4r	.	8.a\L	.	8.cc\L	.	.	.	4r	4r	4r	4r
.	.	.	.	.	16a\Jk	.	16cc\Jk	.	.	.	.	.	.	.
!	!	!	!	!	!LO:LB:g=original	!	!	!	!	!	!	!	!	!
=45	=45	=45	=45	=45	=45	=45	=45	=45	=45	=45	=45	=45	=45	=45
!	!	!	!	!	!LO:TX:a:t=P:problem=mixed beam	!	!	!	!	!	!	!	!	!
4F\	.	.	4F\	.	8.f/L	.	8.a\L	.	2.ryy	2.ryy	4a\	4cc\	4ff\	4aa\
.	.	.	.	.	16aa\Jk	.	16ff\Jk	.	.	.	.	.	.	.
!	!	!	!	!	!	!	!	!	!	!	!	!LO:TX:t=P:problem=t. 45-47 – niekompletne źródło	!	!
4r	.	.	4r	.	8.ff\L	.	8.cc\L	.	.	.	4r	4ryy	4r	4r
.	.	.	.	.	16ff\Jk	.	16cc\Jk	.	.	.	.	.	.	.
!	!	!	!	!	!	!	!LO:LB:g=original	!	!	!	!	!	!	!
4r	.	.	4r	.	8.cc\L	.	8.a/L	.	.	.	4r	4ryy	4r	4r
.	.	.	.	.	16cc\Jk	.	16a/Jk	.	.	.	.	.	.	.
=46	=46	=46	=46	=46	=46	=46	=46	=46	=46	=46	=46	=46	=46	=46
8.F\L	.	.	8.F\L	.	8a|\L	.	8f|/L	.	2.ryy	2.ryy	4a\	2.ryy	4ff\	4aa\
.	.	.	.	.	(16cc\L	.	(16a/L	.	.	.	.	.	.	.
16F\Jk	.	.	16F\Jk	.	16dd\JJ)	.	16b-/JJ)	.	.	.	.	.	.	.
8.C/L	6 4	.	8.C/L	.	8cc|\L	.	8a|\L	.	.	.	4a\	.	4ff\	4aa\
.	.	.	.	.	(16a\L	.	(16cc\L	.	.	.	.	.	.	.
16C/Jk	.	.	16C/Jk	.	16b-\JJ)	.	16dd\JJ)	.	.	.	.	.	.	.
8.AA/L	x 6	.	8.AA/L	.	8a|\L	.	8cc|\L	.	.	.	4a\	.	4ff\	4aa\
.	.	.	.	.	(16a\L	.	(16cc\L	.	.	.	.	.	.	.
16AA/Jk	.	.	16AA/Jk	.	16b-\JJ)	.	16dd\JJ)	.	.	.	.	.	.	.
!	!	!	!LO:LB:g=original	!	!	!	!	!	!	!	!	!	!	!
=47	=47	=47	=47	=47	=47	=47	=47	=47	=47	=47	=47	=47	=47	=47
2.FF/	.	.	2.FF/	.	2.a/	.	2.cc\	.	2.ryy	2.ryy	2.a\	2.ryy	2.ff\	2.aa\
!	!	!	!	!	!	!	!LO:TX:b:t=47.	!	!	!	!	!	!	!
==	==	==	==	==	==	==	==	==	==	==	==	==	==	==
*-	*-	*-	*-	*-	*-	*-	*-	*-	*-	*-	*-	*-	*-	*-
!!!system-decoration: [(g1)][(g2)][(g3)]g4
!!!RDF**kern: | = vertical stroke
!!!ENC: Katarzyna Serwa
!!!END: 2022-02-24
!!!ENC: Berenika Jozajtis
!!!END: 2022-02-15
